!!!COM: Palestrina, Giovanni Perluigi da
!!!OPR: Vestiva i colli
!!!OTL: Benedictus
**kern	**kern	**kern	**kern
*Itenor	*Icalto	*Icant	*Icant
!Tenor	!Altus	!Cantus 2	!Cantus 1
*clefGv2	*clefG2	*clefG2	*clefG2
*k[]	*k[]	*k[]	*k[]
*A:aeo	*A:aeo	*A:aeo	*A:aeo
*M4/2	*M4/2	*M4/2	*M4/2
=1	=1	=1	=1
0r	0r	0r	1a
.	.	.	2cc
.	.	.	2dd
=2	=2	=2	=2
0r	0r	1r	2ee
.	.	.	2ff
.	.	1a	1ee
=3	=3	=3	=3
0r	0r	2cc	2a
.	.	2dd	2b
.	.	2ee	4cc
.	.	.	4a
.	.	2ff	[2dd
=4	=4	=4	=4
1A	0r	1.ee	4dd]
.	.	.	4cc
.	.	.	1cc
2c	.	.	.
2d	.	4dd	4b
.	.	4cc	4a
=5	=5	=5	=5
2e	0r	2b	2g#
2f	.	2a	1a
1e	.	1b	.
.	.	.	2g#
=6	=6	=6	=6
1A	2r	1cc	0a
.	2A	.	.
1r	2c	2r	.
.	2d	2a	.
=7	=7	=7	=7
0r	2e	2cc	2r
.	2f	2dd	2a
.	2e	2ee	2cc
.	2d	2ff	2dd
=8	=8	=8	=8
0r	2c	2ee	2ee
.	2d	1dd	2ff
.	[1a	.	2.ee
.	.	4cc#	.
.	.	4b	4dd
=9	=9	=9	=9
2r	1a]	2cc#	2ee
2d	.	2dd	1ff
2f	1r	2a	.
2g	.	2b	[2ee
=10	=10	=10	=10
2a	0r	2cc	2ee]
2b-	.	2dd	1dd
1a	.	1ee	.
.	.	.	2cc#
=11	=11	=11	=11
2d	2r	2.ff	1dd
1f	2d	.	.
.	.	4ee	.
.	2f	4cc	1r
.	.	4dd	.
4e	2g	[2ee	.
4d	.	.	.
=12	=12	=12	=12
4c	2a	2ee]	0r
4A	.	.	.
1d	2b-	2dd	.
.	1a	2ff	.
2c	.	2ee	.
=13	=13	=13	=13
4f	1d	2.dd	2r
4d	.	.	.
2.f	.	.	2a
.	.	8cc	.
.	.	8b	.
.	1r	[1a	2cc
4e	.	.	.
2d	.	.	2dd
=14	=14	=14	=14
2c#	2r	1a]	2ee
1d	2d	.	1ff
.	2f	1r	.
2e	2g	.	[2ee
=15	=15	=15	=15
2f	2a	0r	2ee]
2g	2b	.	2dd
2.c	[1cc	.	4ee
.	.	.	4ff
.	.	.	4gg
4d	.	.	4ff
=16	=16	=16	=16
2e	1cc]	2r	4ee
.	.	.	4dd
2.f	.	2a	4cc
.	.	.	4b
.	1f	2cc	2.a
4e	.	.	.
2d	.	2dd	.
.	.	.	4b
=17	=17	=17	=17
2c	2g	2ee	0cc
2A	1a	1ff	.
1c	.	.	.
.	2g	[2ee	.
=18	=18	=18	=18
1d	1f	2ee]	1a
.	.	2dd	.
1A	2e	2ee	2r
.	2e	2ee	2cc
=19	=19	=19	=19
0r	2f	2cc	2a
.	2d	2dd	2b
.	1c	2ee	2cc
.	.	[2ee	[2cc
=20	=20	=20	=20
1r	2.g	2ee]	2cc]
.	.	2dd	2.b
.	4g	.	.
1f	1a	2cc	.
.	.	.	4a
.	.	2dd	[2a
=21	=21	=21	=21
2d	1r	1b	2a]
2e	.	.	2g#
2f	2r	1r	1a
[2f	2a	.	.
=22	=22	=22	=22
2f]	2f	0r	2r
1e	2g	.	2ee
.	1a	.	2cc
[2d	.	.	2dd
=23	=23	=23	=23
2d]	2.a	0r	2ee
2c#	.	.	1ee
.	4g	.	.
2d	1f	.	.
2d	.	.	2dd
=24	=24	=24	=24
2A	2e	1r	2cc#
2a	2d	.	2dd
2a	1e	2r	1b
2g#	.	2ee	.
=25	=25	=25	=25
1a	2.f	2cc	0r
.	.	2dd	.
.	8e	.	.
.	8d	.	.
4A	4c	2ee	.
4B	4d	.	.
4c	4e	[2ee	.
4d	4f	.	.
=26	=26	=26	=26
4e	4g	2ee]	0r
4f	4a	.	.
2g	2.b	2dd	.
2a	.	2cc	.
.	4a	.	.
2d	[2a	2dd	.
=27	=27	=27	=27
1e	2a]	1b	2r
.	2g#	.	1ee
1A	2a	1cc	.
.	2a	.	2cc
=28	=28	=28	=28
0r	2f	2a	2dd
.	2g	2b	2.ee
.	2a	2cc	.
.	.	.	4dd
.	[2a	[2cc	4ee
.	.	.	4cc
=29	=29	=29	=29
0r	2a]	2cc]	2ff
.	2g	2b	2.ee
.	2f#	2a	.
.	.	.	4dd
.	2g	2b	[2dd
=30	=30	=30	=30
1r	0e	2g#	2dd]
.	.	1a	2cc
2r	.	.	2b
2e	.	2g#	2ee
=31	=31	=31	=31
2c	2r	1a	2ee
2d	1a	.	2dd
2e	.	2r	2cc
[2e	[2g	2ee	4b
.	.	.	4a
=32	=32	=32	=32
2e]	2g]	2cc	2g
2d	2f	2dd	2.b
2c	2e	2ee	.
.	.	.	4a
2d	2f	4a	[2a
.	.	8b	.
.	.	8cc	.
=33	=33	=33	=33
1B	2d	2dd	2a]
.	2d	2dd	2g#
1A	2e	2cc	2a
.	2e	2cc	2ee
=34	=34	=34	=34
1r	2f	2a	2cc
.	2d	2b	2dd
2r	1c	2cc	2ee
2e	.	2ee	4r
.	.	.	4cc
=35	=35	=35	=35
2f	1r	2cc	2a
2d	.	2dd	2b
2c	2r	1ee	1cc
2A	2a	.	.
=36	=36	=36	=36
2B-	2f	2r	2.dd
2G	2g	1dd	.
.	.	.	4ee
2.F	2a	.	4ff
.	.	.	4gg
.	[2a	4cc	[2ff
4G	.	4b	.
=37	=37	=37	=37
4A	2a]	2.cc	2ff]
4B	.	.	.
2c	2g	.	2.ee
.	.	4b	.
2d	2f#	2a	.
.	.	.	4dd
2G	2g	2b-	[2dd
=38	=38	=38	=38
1.A	1.e	1.a	2dd]
.	.	.	4cc#
.	.	.	4b
.	.	.	2cc#
2A	2e	2a	2cc#
=39	=39	=39	=39
0d	0f#	0a	0dd
*-	*-	*-	*-
!! Hosanna
**kern	**kern	**kern	**kern	**kern
*Ibass	*Itenor	*Itenor	*Icalto	*Icant
!Bassus	!Tenor 2	!Tenor 1	!Altus	!Cantus
*clefF4	*clefGv2	*clefGv2	*clefG2	*clefG2
*k[]	*k[]	*k[]	*k[]	*k[]
*A:aeo	*A:aeo	*A:aeo	*A:aeo	*A:aeo
*M4/2	*M4/2	*M4/2	*M4/2	*M4/2
=40	=40	=40	=40	=40
2r	0r	2e	0r	0r
2A	.	4e	.	.
.	.	4e	.	.
4A	.	2f	.	.
4A	.	.	.	.
2B-	.	2d	.	.
=41	=41	=41	=41	=41
2G	0r	2e	0r	0r
2A	.	2c	.	.
2F	.	2d	.	.
2G	.	[2e	.	.
=42	=42	=42	=42	=42
1A	2e	4e]	2r	0r
.	.	4d	.	.
.	4e	4c	2a	.
.	4e	4B	.	.
2F	2f	2A	4a	.
.	.	.	4a	.
2G	2d	[2d	2b-	.
=43	=43	=43	=43	=43
2E	1e	2d]	2g	2ee
2A	.	2c#	1a	4ee
.	.	.	.	4ee
1D	1a	1d	.	2ff
.	.	.	2f	2dd
=44	=44	=44	=44	=44
0r	2e	2c	2g	2ee
.	4e	2A	2.a	2cc
.	4e	.	.	.
.	2f	1d	.	2dd
.	.	.	4g	.
.	2d	.	4a	2ff
.	.	.	4b	.
=45	=45	=45	=45	=45
0r	2e	1c	1cc	1ee
.	2c	.	.	.
.	2d	1r	2b	4dd
.	.	.	.	4cc
.	2f	.	[2a	4b
.	.	.	.	4a
=46	=46	=46	=46	=46
1r	2.e	2r	2a]	1b
.	.	2e	2g#	.
.	4d	.	.	.
2A	4c	4e	1a	1a
.	4A	4e	.	.
4A	2a	2f	.	.
4A	.	.	.	.
=47	=47	=47	=47	=47
2B-	2f	2d	1r	0r
2G	2g	2e	.	.
2A	2e	2c	2a	.
2F	2a	4d	4a	.
.	.	4f	4a	.
=48	=48	=48	=48	=48
2G	4g	4e	2b-	1r
.	4f	4d	.	.
2B-	4e	1d	2g	.
.	4d	.	.	.
1A	1e	.	1a	2r
.	.	2c#	.	2a
=49	=49	=49	=49	=49
2D	1d	1d	2f	4a
.	.	.	.	4a
2G	.	.	2.g	2b-
2c	2e	1r	.	2g
.	.	.	4e	.
2A	2c	.	[2f	2a
=50	=50	=50	=50	=50
1B-	1d	1r	4f]	2f
.	.	.	4e	.
.	.	.	1d	2g
1A	2r	2e	.	1a
.	2a	4e	2c#	.
.	.	4e	.	.
=51	=51	=51	=51	=51
1D	4a	2f	1d	1r
.	4a	.	.	.
.	2b-	2d	.	.
1r	2g	2e	2r	2ee
.	2a	2c	2a	4ee
.	.	.	.	4ee
=52	=52	=52	=52	=52
0r	2f	2d	4a	2ff
.	.	.	4a	.
.	2g	2G	2b-	2dd
.	1e	2c	2g	2ee
.	.	2A	[2a	2cc
=53	=53	=53	=53	=53
0r	1f	1d	4a]	2dd
.	.	.	4g	.
.	.	.	4a	2ff
.	.	.	4b	.
.	2g	2c	2cc	[1ee
.	[2a	2A	[2cc	.
=54	=54	=54	=54	=54
2E	4a]	1e	2cc]	1ee]
.	4g	.	.	.
4E	2g	.	2.b	.
4E	.	.	.	.
2F	2c	1r	.	2r
.	.	.	4a	.
2D	2d	.	2a	2ff
=55	=55	=55	=55	=55
2E	2B	2e	2g	2ee
2C	2e	4e	2.a	2ee
.	.	4e	.	.
2D	2d	2f	.	1a
.	.	.	4g	.
2F	2A	2d	4a	.
.	.	.	4f	.
=56	=56	=56	=56	=56
0E	2B	2e	2g	1ee
.	2e	2c	1a	.
.	1e	1B	.	1ee
.	.	.	2g#	.
=57	=57	=57	=57	=57
0AA	0e	0A	0a	0cc#
==	==	==	==	==
*-	*-	*-	*-	*-
!!!CDT: 1525/^1526/-1594/2/2
!!!OCY: Italia
!!!AGN: Mass (Parody)
!!!AST: renaissance, vocal
!!!ASW: Madrigal 1566 (Palestrina)
!!!PWK: Masses, Book 9
!!!RNB: Cadence finals: D
!!!YOR: Le Opere Complete, v. 25, p. 54
!!!YOO: Rome, Italy: Fratelli Scalera
!!!END: 1992//
!!!EED: John Miller
!!!YEC: Copyright 2000, John Miller
!!!YEN: United States of America
!!!YEM: Rights to all derivative electronic formats reserved.
!!!YEM: Refer to licensing agreement for further details.
!!!YEM: This file must be accompanied by the licensing agreement.
!!!YEM: A copy of the licensing agreement may be found at http://www.music-cog.ohio-state.edu/HumdrumDatabases/Palestrina/license.txt
!!!EMD: converted to Humdrum by Bret Aarden
